fs/arrow_sort_down_24_filled.svg

<svg viewBox="0 0 24 24" fill="none" xmlns="http://www.w3.org/2000/svg" height="1em" width="1em">
  <path d="M11.8834 4.01063L12 4.00391C12.5128 4.00391 12.9355 4.38995 12.9933 4.88729L13 5.00391L13 16.5877L15.2926 14.2939C15.6529 13.9333 16.2201 13.9053 16.6125 14.2101L16.7068 14.2933C17.0674 14.6536 17.0954 15.2208 16.7906 15.6132L16.7074 15.7075L12.7112 19.7075C12.3509 20.0681 11.7837 20.0961 11.3912 19.7913L11.297 19.7081L7.29323 15.7081C6.90252 15.3178 6.90222 14.6846 7.29256 14.2939C7.65288 13.9333 8.22009 13.9053 8.61253 14.2101L8.70678 14.2933L11 16.5837L11 5.00391C11 4.49107 11.386 4.0684 11.8834 4.01063L12 4.00391L11.8834 4.01063Z" fill="#212121"/>
</svg>

<svg viewBox="0 0 24 24" fill="none" xmlns="http://www.w3.org/2000/svg" height="1em" width="1em">
  <path d="M11.883 4.01 12 4.005a1 1 0 0 1 .993.883l.007.117v11.584l2.293-2.294a1 1 0 0 1 1.32-.084l.094.083a1 1 0 0 1 .084 1.32l-.084.095-3.996 4a1 1 0 0 1-1.32.083l-.094-.083-4.004-4a1 1 0 0 1 1.32-1.498l.094.083L11 16.583V5.004a1 1 0 0 1 .883-.992L12 4.004l-.117.007Z" fill="#212121"/>
</svg>
